src/images/svg/payment-methods/payment-ethereum.svg

<svg width="128" height="80" viewBox="0 0 128 80" fill="none" xmlns="http://www.w3.org/2000/svg">
<path d="M6 39.4974L15.2223 44.9537V35.3084V24.186L6 39.4974Z" fill="#828CAD"/>
<path d="M15.2227 24.186V35.3084V44.9537L24.4558 39.4974L15.2227 24.186Z" fill="#63688E"/>
<path d="M6 41.2534L15.2223 54.2543V46.6971L6 41.2534Z" fill="#8A93B3"/>
<path d="M15.2227 46.6971V54.2543L24.4558 41.2534L15.2227 46.6971Z" fill="#63688E"/>
<path opacity="0.6" d="M15.2223 35.3086L6 39.4976L15.2223 44.9539V39.4976V35.3086Z" fill="#63688E"/>
<path opacity="0.6" d="M15.2227 35.3086V39.4976V44.9539L24.4558 39.4976L15.2227 35.3086Z" fill="#474A75"/>
<path d="M53.5 29.75C53.9142 29.75 54.25 30.0858 54.25 30.5V37.7595C54.9912 37.1299 55.9512 36.75 57 36.75C59.3472 36.75 61.25 38.6528 61.25 41V45.5C61.25 45.9142 60.9142 46.25 60.5 46.25C60.0858 46.25 59.75 45.9142 59.75 45.5V41C59.75 39.4812 58.5188 38.25 57 38.25C55.4812 38.25 54.25 39.4812 54.25 41V45.5C54.25 45.9142 53.9142 46.25 53.5 46.25C53.0858 46.25 52.75 45.9142 52.75 45.5V30.5C52.75 30.0858 53.0858 29.75 53.5 29.75Z" fill="#63688E"/>
<path d="M111 36.75C109.951 36.75 108.991 37.1299 108.25 37.7595V37.5C108.25 37.0858 107.914 36.75 107.5 36.75C107.086 36.75 106.75 37.0858 106.75 37.5V45.5C106.75 45.9142 107.086 46.25 107.5 46.25C107.914 46.25 108.25 45.9142 108.25 45.5V41C108.25 39.4812 109.481 38.25 111 38.25C112.519 38.25 113.75 39.4812 113.75 41V45.5C113.75 45.9142 114.086 46.25 114.5 46.25C114.914 46.25 115.25 45.9142 115.25 45.5V41C115.25 39.4812 116.481 38.25 118 38.25C119.519 38.25 120.75 39.4812 120.75 41V45.5C120.75 45.9142 121.086 46.25 121.5 46.25C121.914 46.25 122.25 45.9142 122.25 45.5V41C122.25 38.6528 120.347 36.75 118 36.75C116.548 36.75 115.267 37.4778 114.5 38.5884C113.733 37.4778 112.452 36.75 111 36.75Z" fill="#63688E"/>
<path d="M96.7501 37.5C96.7501 37.0858 96.4143 36.75 96.0001 36.75C95.5859 36.75 95.2501 37.0858 95.2501 37.5V42C95.2501 44.3472 97.1529 46.25 99.5001 46.25C100.549 46.25 101.509 45.8701 102.25 45.2405V45.5C102.25 45.9142 102.586 46.25 103 46.25C103.414 46.25 103.75 45.9142 103.75 45.5V37.5C103.75 37.0858 103.414 36.75 103 36.75C102.586 36.75 102.25 37.0858 102.25 37.5V42C102.25 43.5188 101.019 44.75 99.5001 44.75C97.9813 44.75 96.7501 43.5188 96.7501 42V37.5Z" fill="#63688E"/>
<path d="M76.7501 37.5V40.4877L76.75 40.5041L76.7501 40.5141V45.5C76.7501 45.9142 77.0859 46.25 77.5001 46.25C77.9143 46.25 78.2501 45.9142 78.2501 45.5V40.5748L78.2571 40.5448C78.2722 40.4813 78.2976 40.3856 78.3366 40.2684C78.4155 40.0318 78.5457 39.7213 78.7492 39.416C79.1423 38.8263 79.8039 38.25 81.0001 38.25C81.4143 38.25 81.7501 37.9142 81.7501 37.5C81.7501 37.0858 81.4143 36.75 81.0001 36.75C79.7805 36.75 78.8879 37.1723 78.2501 37.7272V37.5C78.2501 37.0858 77.9143 36.75 77.5001 36.75C77.0859 36.75 76.7501 37.0858 76.7501 37.5Z" fill="#63688E"/>
<path d="M47.25 34.5C47.25 34.0858 46.9142 33.75 46.5 33.75C46.0858 33.75 45.75 34.0858 45.75 34.5V36.75H44C43.5858 36.75 43.25 37.0858 43.25 37.5C43.25 37.9142 43.5858 38.25 44 38.25H45.75V45.5C45.75 45.9142 46.0858 46.25 46.5 46.25C46.9142 46.25 47.25 45.9142 47.25 45.5V38.25H49C49.4142 38.25 49.75 37.9142 49.75 37.5C49.75 37.0858 49.4142 36.75 49 36.75H47.25V34.5Z" fill="#63688E"/>
<path fill-rule="evenodd" clip-rule="evenodd" d="M36.2527 36.81C35.1376 36.6311 33.9953 36.8552 33.0306 37.4423C32.0659 38.0295 31.3419 38.9411 30.9885 40.0137C30.6352 41.0863 30.6755 42.2497 31.1023 43.2952C31.5291 44.3408 32.3145 45.2001 33.3176 45.7189C34.3206 46.2378 35.4757 46.3823 36.5757 46.1266C37.6757 45.8708 38.6486 45.2315 39.3198 44.3234C39.566 43.9903 39.4956 43.5207 39.1625 43.2745C38.8294 43.0282 38.3598 43.0987 38.1136 43.4318C37.6543 44.0532 36.9886 44.4906 36.236 44.6656C35.4834 44.8405 34.6931 44.7417 34.0068 44.3866C33.3205 44.0316 32.7831 43.4437 32.4911 42.7283C32.4273 42.5722 32.3762 42.4123 32.3377 42.25H39.5C39.9142 42.25 40.25 41.9142 40.25 41.5C40.25 40.3707 39.8476 39.2783 39.1151 38.4188C38.3825 37.5593 37.3677 36.989 36.2527 36.81ZM38.6623 40.75H32.3377C32.359 40.6603 32.3842 40.5712 32.4132 40.483C32.655 39.7491 33.1503 39.1254 33.8104 38.7237C34.4705 38.322 35.2521 38.1686 36.015 38.2911C36.7779 38.4135 37.4723 38.8038 37.9735 39.3918C38.3097 39.7863 38.5443 40.2525 38.6623 40.75Z" fill="#63688E"/>
<path fill-rule="evenodd" clip-rule="evenodd" d="M67.0306 37.4423C67.9953 36.8552 69.1376 36.6311 70.2527 36.81C71.3677 36.989 72.3825 37.5593 73.1151 38.4188C73.8476 39.2783 74.25 40.3707 74.25 41.5V42.25H66.3377C66.3762 42.4123 66.4273 42.5722 66.4911 42.7283C66.7831 43.4437 67.3205 44.0316 68.0068 44.3866C68.6931 44.7417 69.4834 44.8405 70.236 44.6656C70.9886 44.4906 71.6543 44.0532 72.1136 43.4318C72.3598 43.0987 72.8294 43.0282 73.1625 43.2745C73.4956 43.5207 73.566 43.9903 73.3198 44.3234C72.6486 45.2315 71.6757 45.8708 70.5757 46.1266C69.4757 46.3823 68.3206 46.2378 67.3176 45.7189C66.3145 45.2001 65.5291 44.3408 65.1023 43.2952C64.6755 42.2497 64.6352 41.0863 64.9885 40.0137C65.3419 38.9411 66.0659 38.0295 67.0306 37.4423ZM66.3377 40.75H72.6623C72.5443 40.2525 72.3097 39.7863 71.9735 39.3918C71.4723 38.8038 70.7779 38.4135 70.015 38.2911C69.2521 38.1686 68.4705 38.322 67.8104 38.7237C67.1503 39.1254 66.655 39.7491 66.4132 40.483C66.3842 40.5712 66.359 40.6603 66.3377 40.75Z" fill="#63688E"/>
<path fill-rule="evenodd" clip-rule="evenodd" d="M89.2527 36.81C88.1376 36.6311 86.9953 36.8552 86.0306 37.4423C85.0659 38.0295 84.3419 38.9411 83.9885 40.0137C83.6352 41.0863 83.6755 42.2497 84.1023 43.2952C84.5291 44.3408 85.3145 45.2001 86.3176 45.7189C87.3206 46.2378 88.4757 46.3823 89.5757 46.1266C90.6757 45.8708 91.6486 45.2315 92.3198 44.3234C92.566 43.9903 92.4956 43.5207 92.1625 43.2745C91.8294 43.0282 91.3598 43.0987 91.1136 43.4318C90.6543 44.0532 89.9886 44.4906 89.236 44.6656C88.4834 44.8405 87.6931 44.7417 87.0068 44.3866C86.3205 44.0316 85.7831 43.4437 85.4911 42.7283C85.4273 42.5722 85.3762 42.4123 85.3377 42.25H93.25V41.5C93.25 40.3707 92.8476 39.2783 92.1151 38.4188C91.3825 37.5593 90.3677 36.989 89.2527 36.81ZM91.6623 40.75H85.3377C85.359 40.6603 85.3842 40.5712 85.4132 40.483C85.655 39.7491 86.1503 39.1254 86.8104 38.7237C87.4705 38.322 88.2521 38.1686 89.015 38.2911C89.7779 38.4135 90.4723 38.8038 90.9735 39.3918C91.3097 39.7863 91.5443 40.2525 91.6623 40.75Z" fill="#63688E"/>
</svg>

<svg width="128" height="80" fill="none" xmlns="http://www.w3.org/2000/svg"><path d="m6 39.497 9.222 5.457V24.186L6 39.497z" fill="#828CAD"/><path d="M15.222 24.186v20.768l9.234-5.457-9.234-15.311z" fill="#63688E"/><path d="m6 41.253 9.222 13.001v-7.557L6 41.253z" fill="#8A93B3"/><path d="M15.222 46.697v7.557l9.234-13-9.234 5.443z" fill="#63688E"/><path opacity=".6" d="M15.222 35.309 6 39.498l9.222 5.456v-9.646z" fill="#63688E"/><path opacity=".6" d="M15.222 35.309v9.645l9.233-5.456-9.233-4.19z" fill="#474A75"/><path d="M53.5 29.75a.75.75 0 0 1 .75.75v7.26a4.25 4.25 0 0 1 7 3.24v4.5a.75.75 0 0 1-1.5 0V41a2.75 2.75 0 1 0-5.5 0v4.5a.75.75 0 0 1-1.5 0v-15a.75.75 0 0 1 .75-.75zM111 36.75c-1.049 0-2.009.38-2.75 1.01v-.26a.75.75 0 0 0-1.5 0v8a.75.75 0 0 0 1.5 0V41a2.75 2.75 0 1 1 5.5 0v4.5a.75.75 0 0 0 1.5 0V41a2.75 2.75 0 1 1 5.5 0v4.5a.75.75 0 0 0 1.5 0V41a4.25 4.25 0 0 0-7.75-2.412 4.245 4.245 0 0 0-3.5-1.838zM96.75 37.5a.75.75 0 0 0-1.5 0V42a4.25 4.25 0 0 0 7 3.24v.26a.75.75 0 0 0 1.5 0v-8a.75.75 0 0 0-1.5 0V42a2.75 2.75 0 1 1-5.5 0v-4.5zM76.75 37.5v8a.75.75 0 0 0 1.5 0v-4.925l.007-.03a3.62 3.62 0 0 1 .492-1.129c.393-.59 1.055-1.166 2.251-1.166a.75.75 0 0 0 0-1.5c-1.22 0-2.112.422-2.75.977V37.5a.75.75 0 0 0-1.5 0zM47.25 34.5a.75.75 0 0 0-1.5 0v2.25H44a.75.75 0 0 0 0 1.5h1.75v7.25a.75.75 0 0 0 1.5 0v-7.25H49a.75.75 0 0 0 0-1.5h-1.75V34.5z" fill="#63688E"/><path fill-rule="evenodd" clip-rule="evenodd" d="M36.253 36.81a4.75 4.75 0 1 0 3.067 7.513.75.75 0 1 0-1.206-.891 3.25 3.25 0 0 1-5.776-1.182H39.5a.75.75 0 0 0 .75-.75 4.75 4.75 0 0 0-3.997-4.69zm2.41 3.94h-6.325a3.25 3.25 0 0 1 6.325 0zM67.03 37.442a4.75 4.75 0 0 1 7.22 4.058v.75h-7.912a3.25 3.25 0 0 0 5.776 1.182.75.75 0 1 1 1.206.891 4.75 4.75 0 1 1-6.29-6.88zm-.692 3.308h6.324a3.25 3.25 0 0 0-6.324 0zM89.253 36.81a4.75 4.75 0 1 0 3.067 7.513.75.75 0 1 0-1.206-.891 3.25 3.25 0 0 1-5.776-1.182h7.912v-.75a4.75 4.75 0 0 0-3.997-4.69zm2.41 3.94h-6.325a3.25 3.25 0 0 1 6.325 0z" fill="#63688E"/></svg>
